X:1
T:Title
L:1/8
Q:1/4=100
M:4/4
K:A
V:1 treble nm="Church Organ, Staff"
V:1
 D F2 A- A/ z/ d2 c | B A3 =G F3 | F B2 A- A/ z/ =G2 F- | F E2 D- D/ z/ E3 | E F2 B A G2 F | %5
w: By~D.~E.~Hervey * * * * *|||||
 E A2 B- B/ z/ c3 | c d2 c B A2 G | A B3 G A3 | A A2 A- A/ z/ ^A2 =A- | A =G2 G- G/ z/ A3 | %10
w: |||||
 =G ^E2 E- E/ z/ G2 E- | E =E2 D- D/ z/ E3 | A d2 c B A2 G | A B2 A- A/ z/ d3 | %14
w: ||||
 B A2 B- B/ z/ A2 E | F E3 E D2 D- | D F2 A- A/ z/ d2 c | B A3 =G F3 | F B2 A- A/ z/ =G2 F- | %19
w: |||||
 F E3 D E3 | E F2 B A G2 F | E A2 B- B/ z/ c3 | c d2 d- d/ z/ .d3 | d d2 d- d/ z/ .d3 | %24
w: |||||
 d d2 c B A3 | F E2 A- A/ z/ D3- | D2 z2 z4 |] %27
w: |||

